packages/dnb-ui-lib/assets/icons/upload.svg

<svg width="16" height="16" viewBox="0 0 16 16" fill="none" xmlns="http://www.w3.org/2000/svg">
<path fill-rule="evenodd" clip-rule="evenodd" d="M8.53033 0.46967C8.23744 0.176777 7.76256 0.176777 7.46967 0.46967L2.46967 5.46967C2.17678 5.76256 2.17678 6.23744 2.46967 6.53033C2.76256 6.82322 3.23744 6.82322 3.53033 6.53033L7.25 2.81066L7.25 12C7.25 12.4142 7.58578 12.75 8 12.75C8.41421 12.75 8.75 12.4142 8.75 12L8.75 2.81066L12.4697 6.53033C12.7626 6.82322 13.2374 6.82322 13.5303 6.53033C13.8232 6.23744 13.8232 5.76256 13.5303 5.46967L8.53033 0.46967ZM1.75 15.25C1.75 14.8358 2.08579 14.5 2.5 14.5L13.5 14.5C13.9142 14.5 14.25 14.8358 14.25 15.25C14.25 15.6642 13.9142 16 13.5 16L2.5 16C2.08579 16 1.75 15.6642 1.75 15.25Z" fill="black"/>
</svg>

<svg width="16" height="16" viewBox="0 0 16 16" fill="none" xmlns="http://www.w3.org/2000/svg"><path fill-rule="evenodd" clip-rule="evenodd" d="M8.53.47a.75.75 0 00-1.06 0l-5 5a.75.75 0 001.06 1.06l3.72-3.72V12a.75.75 0 001.5 0V2.81l3.72 3.72a.75.75 0 101.06-1.06l-5-5zM1.75 15.25a.75.75 0 01.75-.75h11a.75.75 0 010 1.5h-11a.75.75 0 01-.75-.75z" fill="#000"/></svg>
